images/icons/send.svg

<?xml version="1.0" encoding="UTF-8"?>
<svg width="17px" height="16px" viewBox="0 0 17 16" version="1.1" xmlns="http://www.w3.org/2000/svg" xmlns:xlink="http://www.w3.org/1999/xlink">
    <title>Path</title>
    <g id="Design" stroke="none" stroke-width="1" fill="none" fill-rule="evenodd">
        <g id="XS" transform="translate(-331.000000, -431.000000)" fill="#FFFFFF" fill-rule="nonzero">
            <g id="Group-7" transform="translate(15.000000, 179.000000)">
                <g id="Group-5" transform="translate(0.000000, 238.000000)">
                    <g id="Group-2" transform="translate(301.000000, 0.000000)">
                        <path d="M31.6478656,21.440626 L15.8625291,14.0554888 C15.611178,13.9397884 15.3112566,14.0087163 15.1364036,14.2278087 C14.9603364,14.4469011 14.9542651,14.7583077 15.1218326,14.9835544 L20.3127797,21.9994347 L15.1218326,29.015315 C14.9542651,29.2405617 14.9603364,29.5531992 15.1351894,29.7710607 C15.2529723,29.9199943 15.4290395,30 15.6075352,30 C15.6937474,30 15.7799597,29.9815372 15.8613149,29.9433806 L31.6466513,22.5582434 C31.862789,22.4573132 32,22.2394517 32,21.9994347 C32,21.7594178 31.862789,21.5415562 31.6478656,21.440626 Z" id="Path"></path>
                    </g>
                </g>
            </g>
        </g>
    </g>
</svg>

<svg width="17" height="16" xmlns="http://www.w3.org/2000/svg"><g id="Design" stroke="none" stroke-width="1" fill="none" fill-rule="evenodd"><g id="XS" transform="translate(-331 -431)" fill="#FFF" fill-rule="nonzero"><g id="Group-7" transform="translate(15 179)"><g id="Group-5" transform="translate(0 238)"><g id="Group-2" transform="translate(301)"><path d="M31.648 21.44l-15.785-7.385a.605.605 0 00-.727.173.619.619 0 00-.014.756l5.19 7.015-5.19 7.016a.62.62 0 00.013.756.602.602 0 00.726.172l15.786-7.385A.615.615 0 0032 22a.616.616 0 00-.352-.558z" id="Path"/></g></g></g></g></g></svg>
